public/images/tick.svg

<svg width="32" height="32" fill="none" xmlns="http://www.w3.org/2000/svg"><path d="M20 29.33c6.66 0 9.33-2.67 9.33-9.33v-8c0-6.67-2.67-9.34-9.33-9.34h-8c-6.67 0-9.34 2.67-9.34 9.34v8c0 6.66 2.67 9.33 9.34 9.33h8z" stroke="#0639D4" stroke-width="1.8" stroke-linejoin="round"/><path d="m10.33 16 3.77 3.77 7.56-7.55" stroke="#0639D4" stroke-width="1.8" stroke-linejoin="round" stroke-linecap="round"/></svg>

<svg width="32.000000" height="32.000000" viewBox="0 0 32 32" fill="none" xmlns="http://www.w3.org/2000/svg" xmlns:xlink="http://www.w3.org/1999/xlink">
	<desc>
			Created with Pixso.
	</desc>
	<defs/>
	<path id="Vector" d="M20 29.33C26.66 29.33 29.33 26.66 29.33 20L29.33 12C29.33 5.33 26.66 2.66 20 2.66L12 2.66C5.33 2.66 2.66 5.33 2.66 12L2.66 20C2.66 26.66 5.33 29.33 12 29.33L20 29.33Z" stroke="#0639D4" stroke-opacity="1.000000" stroke-width="1.800000" stroke-linejoin="round"/>
	<path id="Vector" d="M10.33 16L14.1 19.77L21.66 12.22" stroke="#0639D4" stroke-opacity="1.000000" stroke-width="1.800000" stroke-linejoin="round" stroke-linecap="round"/>
	<g opacity="0.000000"/>
</svg>
